lib/preview_tmp/nrk-logo-preview-nrk-2-with-bg.svg

<svg width="68" height="28" viewBox="0 0 68 28" fill="none" xmlns="http://www.w3.org/2000/svg">
<rect width="68" height="28" fill="#78003D"/>
<path d="M6.66663 21V7.00129H11.26V21H6.66663ZM17.5094 9.22926L20.151 21H15.124L11.9697 7.00129H14.7892C15.4357 6.9929 16.063 7.22081 16.5535 7.64214C17.0449 8.0458 17.3824 8.60617 17.5094 9.22926ZM20.8411 21V7.00129H25.4345V21H20.8411ZM28.9038 12.3248C28.4089 12.3296 27.9218 12.2001 27.4946 11.9501C27.073 11.7065 26.7229 11.3563 26.4793 10.9347C26.229 10.5074 26.0995 10.0202 26.1044 9.52506C26.0988 9.03289 26.2284 8.54863 26.4793 8.12519C26.7255 7.70818 27.0752 7.3618 27.4946 7.11963C27.922 6.86994 28.4089 6.74045 28.9038 6.74497C29.3959 6.73967 29.8799 6.86927 30.3035 7.11963C30.7187 7.36392 31.0647 7.71001 31.309 8.12519C31.5596 8.54875 31.6892 9.03293 31.6838 9.52506C31.6884 10.0202 31.5589 10.5073 31.309 10.9347C31.0673 11.3545 30.7209 11.7043 30.3035 11.9501C29.8799 12.201 29.3955 12.3306 28.9032 12.3248H28.9038ZM32.3935 21V7.00129H36.9873V21H32.3935ZM42.8027 14.6513C42.8156 14.6649 42.9141 14.8259 43.0983 15.1343C43.2826 15.4428 43.5224 15.8372 43.8179 16.3174C44.1136 16.7973 44.4257 17.3067 44.754 17.8454C45.0824 18.384 45.3913 18.8934 45.6809 19.3734C45.9694 19.8534 46.298 20.3956 46.6666 21H41.6198C41.3041 20.4874 41.0181 20.0241 40.7618 19.61C40.5056 19.196 40.2331 18.749 39.9444 18.2693C39.6551 17.7899 39.369 17.3233 39.0862 16.8694C38.8034 16.4155 38.5604 16.0179 38.3571 15.6766C38.153 15.3351 38.0116 15.105 37.9329 14.9865C37.7379 14.6924 37.6225 14.3527 37.5981 14.0007C37.6176 13.6628 37.7263 13.3362 37.9132 13.054C37.992 12.9225 38.1366 12.6892 38.3469 12.354C38.5572 12.0188 38.8036 11.6212 39.0862 11.1612C39.3688 10.7011 39.6549 10.2312 39.9444 9.75146C40.234 9.27169 40.5064 8.82146 40.7618 8.40084C41.0186 7.98066 41.3046 7.51404 41.6198 7.00097H46.6666L42.7629 13.3694C42.6421 13.5585 42.574 13.7764 42.5657 14.0007C42.5787 14.2361 42.6609 14.4624 42.8019 14.6513H42.8027Z" fill="white"/>
<path d="M54.6348 19.3066C54.9469 19.0388 55.2679 18.7606 55.6069 18.459C56.08 18.0384 56.5564 17.5818 57.036 17.089C57.5157 16.5962 57.9724 16.0837 58.406 15.5515C58.8272 15.0364 59.2125 14.4931 59.5592 13.9252C59.8828 13.3974 60.1472 12.8355 60.3477 12.2497C60.5339 11.7106 60.6304 11.1446 60.6335 10.5742C60.6429 10.0416 60.5352 9.51331 60.3181 9.02683C60.1032 8.56738 59.7865 8.16292 59.3919 7.84413C58.9404 7.48649 58.4205 7.22488 57.8643 7.07536C57.1805 6.88846 56.4737 6.79888 55.765 6.80925C55.3057 6.80803 54.8473 6.84761 54.395 6.92752C53.9647 7.00357 53.5423 7.11904 53.1331 7.27247C52.7431 7.41865 52.3644 7.59324 52 7.79484L52.2559 9.50976C52.5682 9.3005 52.9021 9.12538 53.2517 8.98741C53.6315 8.83497 54.024 8.71624 54.4246 8.63259C54.8329 8.54705 55.2489 8.50411 55.6661 8.50446C56.1032 8.49557 56.539 8.55544 56.9575 8.68188C57.2908 8.78389 57.5971 8.95898 57.8541 9.19439C58.0857 9.41034 58.2645 9.67678 58.3765 9.973C58.4912 10.2854 58.5481 10.616 58.5443 10.9487C58.5375 11.5072 58.4238 12.0593 58.2092 12.575C57.9598 13.1806 57.6424 13.7559 57.2631 14.2899C56.8213 14.9172 56.3407 15.5163 55.8241 16.0837C55.2722 16.6947 54.671 17.3058 54.0205 17.9169C53.37 18.5279 52.6965 19.1489 52 19.7796L52.2559 21.0018H60.7915L61.028 19.3066H54.6348Z" fill="#FDAFD7"/>
</svg>

<svg xmlns="http://www.w3.org/2000/svg" viewBox="0 0 68 28"><path fill="#78003D" d="M0 0h68v28H0z"/><path fill="#fff" d="M6.667 21V7.001h4.593V21H6.667ZM17.509 9.23 20.151 21h-5.027L11.97 7.001h2.82a2.655 2.655 0 0 1 1.764.641c.49.404.828.964.955 1.587ZM20.841 21V7.001h4.593V21h-4.593Zm8.063-8.675a2.738 2.738 0 0 1-1.41-.375 2.777 2.777 0 0 1-1.015-1.015 2.735 2.735 0 0 1-.375-1.41 2.686 2.686 0 0 1 .375-1.4 2.812 2.812 0 0 1 3.825-1.005c.415.244.76.59 1.005 1.005.25.424.38.908.375 1.4.004.495-.125.982-.375 1.41a2.8 2.8 0 0 1-1.006 1.015c-.423.251-.908.38-1.4.375ZM32.394 21V7.001h4.593V21h-4.593Zm10.409-6.349c.013.014.111.175.295.483.185.309.424.703.72 1.183a366.453 366.453 0 0 1 1.863 3.056c.288.48.617 1.023.986 1.627H41.62a744.12 744.12 0 0 0-.858-1.39c-.256-.414-.529-.861-.818-1.34-.289-.48-.575-.947-.858-1.4a71.148 71.148 0 0 1-.729-1.193 20.758 20.758 0 0 0-.424-.69 2.04 2.04 0 0 1-.335-.986c.02-.338.128-.665.315-.947.079-.132.224-.365.434-.7a210.216 210.216 0 0 0 1.598-2.603c.289-.48.561-.93.817-1.35L41.62 7h5.047l-3.904 6.368c-.12.19-.189.407-.197.632.013.235.095.461.236.65Z"/><path fill="#FDAFD7" d="M54.635 19.307c.312-.268.633-.546.972-.848.473-.42.95-.877 1.429-1.37.48-.493.936-1.005 1.37-1.537.421-.516.806-1.059 1.153-1.627.324-.528.588-1.09.789-1.675.186-.54.282-1.105.285-1.676a3.64 3.64 0 0 0-.315-1.547 3.339 3.339 0 0 0-.926-1.183 4.228 4.228 0 0 0-1.528-.769 7.544 7.544 0 0 0-2.099-.266 7.755 7.755 0 0 0-1.37.119c-.43.076-.853.191-1.262.344-.39.147-.769.321-1.133.523l.256 1.715c.312-.21.646-.385.996-.523.38-.152.772-.27 1.173-.354a6.03 6.03 0 0 1 1.241-.129c.437-.008.873.051 1.292.178.333.102.64.277.896.512.232.216.41.483.523.779.114.312.171.643.167.976a4.372 4.372 0 0 1-.335 1.626 8.648 8.648 0 0 1-.946 1.715 18.414 18.414 0 0 1-1.439 1.794 31.397 31.397 0 0 1-1.803 1.833A150.76 150.76 0 0 1 52 19.78l.256 1.222h8.535l.237-1.695h-6.393Z"/></svg>
